X: 35830
T: Salton De San Martin
R: reel
M: 4/4
K: Amajor
e2 ce fgfe|cBAB cBAF|e2 ce fgfe|cABc A3 c|
e2 ce fgfe|cBAB cBAF|e2 ce fgfe|cABc A3 B||
c2 BA e2 dc|BABc A3 B|c2 BA e2 dc|BABc F2 FE|
FGAB cAec|BABc A3 B|c2 BA e2 dc|BABc A2 Bc||

